public/assets/img/icons/realestate.svg

<svg id="e4HyqjVxBuf1" xmlns="http://www.w3.org/2000/svg" xmlns:xlink="http://www.w3.org/1999/xlink" viewBox="0 0 64 60" shape-rendering="geometricPrecision" text-rendering="geometricPrecision" project-id="4595c196f36e4dd79dbf3d8a7f37d138" export-id="f897132fc19c411d989af3805610c49c" cached="false">
<style><![CDATA[
#e4HyqjVxBuf5_to {animation: e4HyqjVxBuf5_to__to 4000ms linear infinite normal forwards}@keyframes e4HyqjVxBuf5_to__to { 0% {transform: translate(5.173421px,49.58924px)} 25% {transform: translate(27.65843px,43.712049px)} 47.5% {transform: translate(27.65843px,42.712049px)} 100% {transform: translate(27.65843px,42.712049px)}} #e4HyqjVxBuf5 {animation: e4HyqjVxBuf5_c_o 4000ms linear infinite normal forwards}@keyframes e4HyqjVxBuf5_c_o { 0% {opacity: 0} 22.5% {opacity: 0} 47.5% {opacity: 1} 100% {opacity: 1}} #e4HyqjVxBuf6_to {animation: e4HyqjVxBuf6_to__to 4000ms linear infinite normal forwards}@keyframes e4HyqjVxBuf6_to__to { 0% {transform: translate(20.337306px,52.055916px)} 25% {transform: translate(42.822315px,46.178725px)} 47.5% {transform: translate(42.822315px,45.178725px)} 100% {transform: translate(42.822315px,45.178725px)}} #e4HyqjVxBuf6 {animation: e4HyqjVxBuf6_c_o 4000ms linear infinite normal forwards}@keyframes e4HyqjVxBuf6_c_o { 0% {opacity: 0} 22.5% {opacity: 0} 47.5% {opacity: 1} 100% {opacity: 1}} #e4HyqjVxBuf7 {animation: e4HyqjVxBuf7_s_do 4000ms linear infinite normal forwards}@keyframes e4HyqjVxBuf7_s_do { 0% {stroke-dashoffset: 92.77} 47.5% {stroke-dashoffset: 92.77} 67.5% {stroke-dashoffset: 0} 100% {stroke-dashoffset: 0}} #e4HyqjVxBuf8 {animation: e4HyqjVxBuf8_s_do 4000ms linear infinite normal forwards}@keyframes e4HyqjVxBuf8_s_do { 0% {stroke-dashoffset: 18.81} 47.5% {stroke-dashoffset: 18.81} 67.5% {stroke-dashoffset: 0} 100% {stroke-dashoffset: 0}} #e4HyqjVxBuf9 {animation: e4HyqjVxBuf9_s_do 4000ms linear infinite normal forwards}@keyframes e4HyqjVxBuf9_s_do { 0% {stroke-dashoffset: 36.66} 47.5% {stroke-dashoffset: 36.66} 67.5% {stroke-dashoffset: 0} 100% {stroke-dashoffset: 0}} #e4HyqjVxBuf10 {animation: e4HyqjVxBuf10_s_do 4000ms linear infinite normal forwards}@keyframes e4HyqjVxBuf10_s_do { 0% {stroke-dashoffset: 16.53} 37.5% {stroke-dashoffset: 16.53} 62.5% {stroke-dashoffset: 0} 100% {stroke-dashoffset: 0}} #e4HyqjVxBuf11 {animation-name: e4HyqjVxBuf11_s_do, e4HyqjVxBuf11_s_da;animation-duration: 4000ms;animation-fill-mode: forwards;animation-timing-function: linear;animation-direction: normal;animation-iteration-count: infinite;}@keyframes e4HyqjVxBuf11_s_do { 0% {stroke-dashoffset: 5.99} 37.5% {stroke-dashoffset: 5.99} 62.5% {stroke-dashoffset: 0} 100% {stroke-dashoffset: 0}}@keyframes e4HyqjVxBuf11_s_da { 0% {stroke-dasharray: 5.99} 37% {stroke-dasharray: 5.99} 37.5% {stroke-dasharray: 5.99} 100% {stroke-dasharray: 5.99}} #e4HyqjVxBuf12 {animation: e4HyqjVxBuf12_s_do 4000ms linear infinite normal forwards}@keyframes e4HyqjVxBuf12_s_do { 0% {stroke-dashoffset: 5.99} 37.5% {stroke-dashoffset: 5.99} 62.5% {stroke-dashoffset: 0} 100% {stroke-dashoffset: 0}} #e4HyqjVxBuf13 {animation: e4HyqjVxBuf13_s_do 4000ms linear infinite normal forwards}@keyframes e4HyqjVxBuf13_s_do { 0% {stroke-dashoffset: 5.99} 37.5% {stroke-dashoffset: 5.99} 62.5% {stroke-dashoffset: 0} 100% {stroke-dashoffset: 0}}
]]></style>
<g clip-path="url(#e4HyqjVxBuf14)"><g transform="translate(0 0.005308)"><path d="M0.800781,44.4756L7.05794,40.8873c.69287-.3939,1.57762-.1597,1.98268.5218L19.5723,59.1908" fill="none" stroke="#ee3524" stroke-width="1.5" stroke-linecap="round" stroke-linejoin="round"/><g id="e4HyqjVxBuf5_to" transform="translate(5.173421,49.58924)"><path id="e4HyqjVxBuf5" d="M10.2656,43.4855l6.9501-4.504c3.3897-2.1935,7.5682-2.7897,11.4377-1.6398l13.3031,3.961c1.7055.5111,2.7821,2.1934,2.5263,3.9609-.2878,1.9273-2.0573,3.2689-3.9867,3.024L28.8133,46.8395" transform="translate(-27.392939,-42.542376)" opacity="0" fill="none" stroke="#ee3524" stroke-width="1.5" stroke-linecap="round" stroke-linejoin="round"/></g><g id="e4HyqjVxBuf6_to" transform="translate(20.337306,52.055916)"><path id="e4HyqjVxBuf6" d="M43.7701,42.5376l13.7082-8.3371c1.6735-1.0222,3.8481-.5857,4.9993,1.0008c1.2152,1.6717.8528,4.0142-.8208,5.2387L42.0112,54.8251c-1.5243,1.118-3.4004,1.6611-5.2871,1.5226L21.918,55.3043" transform="translate(-42.556824,-45.009052)" opacity="0" fill="none" stroke="#ee3524" stroke-width="1.5" stroke-linecap="round" stroke-linejoin="round"/></g><path id="e4HyqjVxBuf7" d="M28.6523,37.331v-34.44546c0-1.14996.9381-2.086956,2.0893-2.086956h14.4757c1.1512,0,2.0893.936996,2.0893,2.086956v37.28836" fill="none" stroke="#ee3524" stroke-width="1.5" stroke-linecap="round" stroke-linejoin="round" stroke-dashoffset="92.77" stroke-dasharray="92.77"/><path id="e4HyqjVxBuf8" d="M47.3086,23.574h5.2871c1.2259,0,2.2279.9902,2.2279,2.2254v10.0195" fill="none" stroke="#ee3524" stroke-width="1.5" stroke-linecap="round" stroke-linejoin="round" stroke-dashoffset="18.81" stroke-dasharray="18.81"/><path id="e4HyqjVxBuf9" d="M16.8008,39.2476v-22.6477c0-1.1819.7568-2.236,1.8761-2.63l9.988-3.4499" fill="none" stroke="#ee3524" stroke-width="1.5" stroke-linecap="round" stroke-linejoin="round" stroke-dashoffset="36.66" stroke-dasharray="36.66"/><path id="e4HyqjVxBuf10" d="M22.7266,36.9052v-16.5253" fill="none" stroke="#ee3524" stroke-width="1.5" stroke-linecap="round" stroke-linejoin="round" stroke-dashoffset="16.53" stroke-dasharray="16.53"/><path id="e4HyqjVxBuf11" d="M34.9961,13.0647h5.98" fill="none" stroke="#ee3524" stroke-width="1.5" stroke-linecap="round" stroke-linejoin="round" stroke-dashoffset="5.99" stroke-dasharray="5.99"/><path id="e4HyqjVxBuf12" d="M34.9961,21.0293h5.98" fill="none" stroke="#ee3524" stroke-width="1.5" stroke-linecap="round" stroke-linejoin="round" stroke-dashoffset="5.99" stroke-dasharray="5.99"/><path id="e4HyqjVxBuf13" d="M34.9961,28.9939h5.98" fill="none" stroke="#ee3524" stroke-width="1.5" stroke-linecap="round" stroke-linejoin="round" stroke-dashoffset="5.99" stroke-dasharray="5.99"/></g><clipPath id="e4HyqjVxBuf14"><rect width="64" height="60" rx="0" ry="0" fill="#fff"/></clipPath></g></svg>

<svg width="64" height="60" viewBox="0 0 64 60" fill="none" xmlns="http://www.w3.org/2000/svg">
<g clip-path="url(#clip0_614_1025)">
<path d="M0.800781 44.4756L7.05794 40.8873C7.75081 40.4934 8.63556 40.7276 9.04062 41.4091L19.5723 59.1908" stroke="#EE3524" stroke-width="1.5" stroke-linecap="round" stroke-linejoin="round"/>
<path d="M10.2656 43.4855L17.2157 38.9815C20.6054 36.788 24.7839 36.1918 28.6534 37.3417L41.9565 41.3027C43.662 41.8138 44.7386 43.4961 44.4828 45.2636C44.195 47.1909 42.4255 48.5325 40.4961 48.2876L28.8133 46.8395" stroke="#EE3524" stroke-width="1.5" stroke-linecap="round" stroke-linejoin="round"/>
<path d="M43.7701 42.5376L57.4783 34.2005C59.1518 33.1783 61.3264 33.6148 62.4776 35.2013C63.6928 36.873 63.3304 39.2155 61.6568 40.44L42.0112 54.8251C40.4869 55.9431 38.6108 56.4862 36.7241 56.3477L21.918 55.3043" stroke="#EE3524" stroke-width="1.5" stroke-linecap="round" stroke-linejoin="round"/>
<path d="M28.6523 37.331V2.88554C28.6523 1.73558 29.5904 0.798584 30.7416 0.798584H45.2173C46.3685 0.798584 47.3066 1.73558 47.3066 2.88554V40.1739" stroke="#EE3524" stroke-width="1.5" stroke-linecap="round" stroke-linejoin="round"/>
<path d="M47.3086 23.574H52.5957C53.8216 23.574 54.8236 24.5642 54.8236 25.7994V35.8189" stroke="#EE3524" stroke-width="1.5" stroke-linecap="round" stroke-linejoin="round"/>
<path d="M16.8008 39.2476V16.5999C16.8008 15.418 17.5576 14.3639 18.6769 13.9699L28.6649 10.52" stroke="#EE3524" stroke-width="1.5" stroke-linecap="round" stroke-linejoin="round"/>
<path d="M22.7266 36.9052V20.3799" stroke="#EE3524" stroke-width="1.5" stroke-linecap="round" stroke-linejoin="round"/>
<path d="M34.9961 13.0647H40.9761" stroke="#EE3524" stroke-width="1.5" stroke-linecap="round" stroke-linejoin="round"/>
<path d="M34.9961 21.0293H40.9761" stroke="#EE3524" stroke-width="1.5" stroke-linecap="round" stroke-linejoin="round"/>
<path d="M34.9961 28.9939H40.9761" stroke="#EE3524" stroke-width="1.5" stroke-linecap="round" stroke-linejoin="round"/>
</g>
<defs>
<clipPath id="clip0_614_1025">
<rect width="64" height="60" fill="white"/>
</clipPath>
</defs>
</svg>
